X:1
T:Title
%%score { ( 1 3 ) | ( 2 4 ) }
L:1/8
M:4/4
K:F
V:1 treble nm="Grand Piano"
V:3 treble 
V:2 bass 
V:4 bass 
V:1
 z4 z2[Q:1/4=100] F2 | A2 A2 A3 A | A>A A>A [Ac]2 [GB]>[FA] | [EG]2 [EG]2 [EG]3 [FA] | %4
 [GB]>[GB] [Ac]>[GB] A3 A | A2 A2 A3 B | d>c c>=B c2 A>A | [EG]2 [Ec]2 [G,CE]3 [CEG] | %8
 [=B,FA]>[B,DG] [G,DF]>[K:bass][F,B,D] C3[K:treble] C | B>A G>F E2 [EG]2 | [Ec]2 [GB]2 A3 c | %11
 d>c B>B [EG]2 [Ec]2 | %12
 z4 z2 .[CA]2[Q:1/4=98][Q:1/4=97][Q:1/4=95][Q:1/4=94][Q:1/4=92][Q:1/4=91][Q:1/4=89][Q:1/4=88][Q:1/4=86][Q:1/4=84][Q:1/4=83][Q:1/4=81] | %13
 [A,F]3 [A,F] [B,DF]2 [B,DF]2[Q:1/4=80][Q:1/4=78][Q:1/4=77] |[M:3/4] [A,CF]6 |] %15
V:2
 z4 z2 [F,A,C]2 | [F,CF]2 [F,CF]2 [F,CF]3 [F,CF] | [F,CF]>[F,CF] [F,CF]>[F,CF] [F,C]2 [F,C]>[F,C] | %3
 [C,C]2 [C,C]2 [C,C]3 [C,C] | [C,C]>[C,C] [C,C]>[C,C] [F,CF]3 [F,CF] | %5
 [F,CF]2 [F,CF]2 [F,CF]3 [F,DF] | [F,B,F]>[F,A,F] [F,A,F]>[F,_A,F] [F,=A,F]2 [F,CF]>[F,CF] | %7
 [C,C]2 [C,G,]2 C,3 C, | G,,>G,, G,,>G,, [C,E,]3 [C,E,] | %9
 [C,G,C]>[C,F,C] [C,E,B,]>[C,F,A,] [C,G,C]2 [C,C]2 | [C,G,]2 [E,C]2 [F,CF]3 [F,A,F] | %11
 [F,B,F]>[F,A,F] [F,DF]>[F,CF] [C,B,]2 [C,G,]2 | F,2 F,2 C,2 z B, | D,3 D, B,,2 B,,2 | %14
[M:3/4] F,,6 |] %15
V:3
 x8 | x8 | x8 | x8 | x8 | x8 | x8 | x8 | x7/2[K:bass] x7/2[K:treble] x | x8 | x8 | x8 | %12
 [A,CF]2 [CFA]2 [CEG]2 E-[EG] | x8 |[M:3/4] x6 |] %15
V:4
 x8 | x8 | x8 | x8 | x8 | x8 | x8 | x8 | x8 | x8 | x8 | x8 | z4 z2 C,2 | x8 |[M:3/4] x6 |] %15

